!!!Melodie: eigene
!!!Typ: Lied
**kern	**silbe	**silbe	**silbe	**silbe
*clefG2	*lang:DE	*lang:DE	*lang:DE	*lang:DE
*k[b-]	*	*	*	*
*M3/4	*	*	*	*
4f	Wir	Die	Wir	Wir
=	=	=	=	=
4.f	woll’n	Lie#	sind	sind
8g	uns	#be	nicht	in
8a	ger#	wird	ein#	ihm
8b-	#ne	uns	#sam	zu#
=	=	=	=	=
4cc	wa#	lei#	‘blie#	#frie#
4a	#gen,	#ten,	#ben,	#den;
4f	in	den	wir	was
=	=	=	=	=
*M2/4	*	*	*	*
4b-	un#	Weg	woll’n	uns
4dd	#ser'n	be#	uns	hie#
=	=	=	=	=
*M3/4	*	*	*	*
4cc	Ta#	#rei#	ü#	#nie#
4a	#gen	#ten,	#ben	#den
4f	der	und	mit	als
=	=	=	=	=
4.f	Ru#	mit	größ#	Last
8g	#he	den	#er'n	von
8a	ab#	Au#	Gna#	ihm
8b-	#zu#	#gen	#den#	be#
=	=	=	=	=
4a	#sa#	deu#	#trie#	#schie#
4f	#gen,	#ten	#ben	#den,
4d	die’s	auf	als	hat
=	=	=	=	=
*M2/4	*	*	*	*
4g	Tun	man#	eins	sein
4g	ver#	#cher#	al#	Ge#
=	=	=	=	=
*M3/4	*	*	*	*
2c	#gisst.	#lei,	#lein.	#wicht;
4c	Wir	ob’s	Wir	doch
=	=	=	=	=
4.c	woll’n	et#	sind	ist
8d	nach	#wa	am	das
8e	Ar#	Zeit	Stamm	Joch
8f	#beit	zu	ge#	für
=	=	=	=	=
4g	fra#	strei#	#blie#	je#
4e	#gen,	#ten,	#ben	#den
4c	wo	ob’s	der	d’rauf
=	=	=	=	=
*M2/4	*	*	*	*
4f	wel#	Rast#	Kreuz#	ein#
4a	#che	#tag	#ge#	#ge#
=	=	=	=	=
*M3/4	*	*	*	*
2g	ist,	sei.	#mein'.	#richt'.
4f	nicht	Wir	D’rum	D’rum
=	=	=	=	=
4.f	an	se#	gilt’s	mag
8g	dem	#hen	ge#	der
8a	Amt	schon	#mein#	Leib
8b-	ver#	von	#sam	er#
=	=	=	=	=
4cc	#za#	wei#	lie#	#mü#
4a	#gen,	#tem	#ben,	#den:
4f	uns	die	sich	wir
=	=	=	=	=
*M2/4	*	*	*	*
4b-	fröh#	Grad	mit	geh’n
4dd	#lich	und	be#	im
=	=	=	=	=
*M3/4	*	*	*	*
4cc	pla#	Zei#	#trü#	Frie#
4a	#gen,	#ten	#ben	#den,
4f	und	ver#	und	von
=	=	=	=	=
4.f	uns#	#heiß#	uns#	Je#
8g	#'re	#'ner	#'re	#sus
8a	Stei#	Se#	Las#	un#
8b-	#ne	#lig#	#ten	#ge#
=	=	=	=	=
4a	tra#	#kei#	schie#	#schie#
4f	#gen	#ten:	#ben,	#den,
4d	auf’s	nur	die	und
=	=	=	=	=
*M2/4	*	*	*	*
4g	Bau#	treu,	Chris#	ster#
4g	#ge#	nur	#ti	#ben
=	=	=	=	=
2f	#rüst.	treu!	sein.	nicht.
==	==	==	==	==
*-	*-	*-	*-	*-
